X:1
T:Allo Spirito Santo
T:Allo Spirito Santo
T:Giovanni Pietro Biandra
T:Aria
T:Source : Madrigaletti a 1, 2 e 3 voci. Libro primo---Venezia---B.Magni (Gardano)---1626. Editor : André Vierendeels (16/03/15).
T:Notes : Original clefs : C1, F4 Third part from Trilogy (?)
C:Giovanni Pietro Biandra
%%score 1 2
L:1/8
Q:1/4=94
M:4/4
K:C
V:1 treble nm="Canto" snm="C"
V:2 bass nm="BC" snm="BC"
V:1
 dg f2 ee d2 | c2 Bd c2 BB |[M:2/4] A2 G2 :: z2 cd |[M:4/4] c2 cd d2 c2 | z2 dd c2 cc | %6
w: Vi- vo rag- gio del So-|le, vi- va Fiam- ma d'A-|mo- re,|co- e-|ter- no splen- do- re,|che di- stin- to pro-|
w: No- do stret- to, e li-|ga- me de le per- ch'e-|ter- ne,|Hai le|vir- tu- d'in- ter- ne,|tu man- di'e sei man-|
w: D'un sol prin- ci- pio do-|no, da un Spi)ra- tor Spi-|ra- to,|da doi|Spi- ran- ti da- to,|e nel' i- stes- so'in-|
w: Tu del- la de- stra di-|to, di Dio tu let- ti-|for- me,|raf- fre-|na'i pas- si'e l'or- me,|di que- st'al- ma sma-|
 B2 BA Bcde | e4 d4 | c3 B A4 | G8 :| %10
w: ce- di ma di va- lor non|ce- d'in|tal can- do-|re.|
w: da- to non pe- ro com- man-|da- to'e|sei A- mo-|re.|
w: stan- te di Pa- dr'e Fi- glio'a-|man- te'hai|tuo va- lo-|re.|
w: ri- ta fal- la pu- ra'e gra-|di- ta'l|suo Si- gno-|re.|
V:2
 G,E, D,2 C,2 G,,2 | C,2 E,B,, A,,2 G,,2 |[M:2/4] D,2 G,,2 :: z2 F,G, |[M:4/4] A,2 F,2 G,2 C,2 | %5
 G,,2 B,,2 A,,2 C,2 | E,2 F,2 G,2 F,2 | G,2 A,2 D,2 B,,2 | C,4 D,4 | G,,8 :| %10

